src/icon/banking/card-add/icon_card-add_xl_black.svg

<svg width="36px" height="36px" viewBox="0 0 36 36" version="1.1" xmlns="http://www.w3.org/2000/svg"><g transform="translate(-196.000000, -29.000000) translate(196.000000, 29.000000)" stroke="none" stroke-width="1" fill="none" fill-rule="evenodd"><polygon points="0 0 36 0 36 36 0 36"/><path d="M4.84787941,21.0089575 L10.8478794,21.0089575 L10.8478794,24.0089575 L4.84787941,24.0089575 L4.84787941,21.0089575 Z M1.98205874,12.0062596 L33.9820587,12.0062596 L33.9820587,15.9783274 L2.00065926,16 L1.98205874,12.0062596 Z" fill="#0B1F35" fill-rule="nonzero" opacity="0.3"/><path d="M34,16.0115239 L34,8.28571429 C34,6.47106439 32.4447786,5 30.5263158,5 L4.47368421,5 C2.5552214,5 1,6.47106439 1,8.28571429 L1,24.7142857 C1,26.5289356 2.5552214,28 4.47368421,28 L21.810471,28 L21.810471,27 L4.47368421,27 C3.09544945,27 2,25.9638281 2,24.7142857 L2,8.28571429 C2,7.03617188 3.09544945,6 4.47368421,6 L30.5263158,6 C31.9045505,6 33,7.03617188 33,8.28571429 L33,16.0115239 L34,16.0115239 Z M34,8.28571429 C34,6.47106439 32.4447786,5 30.5263158,5 L4.47368421,5 C2.5552214,5 1,6.47106439 1,8.28571429 L1,24.7142857 C1,26.5289356 2.5552214,28 4.47368421,28 L21.810471,28 L21.810471,27 L4.47368421,27 C3.09544945,27 2,25.9638281 2,24.7142857 L2,8.28571429 C2,7.03617188 3.09544945,6 4.47368421,6 L30.5263158,6 C31.9045505,6 33,7.03617188 33,8.28571429 L33,16.0115239 L34,16.0115239 L34,8.28571429 Z" fill="#0B1F35" fill-rule="nonzero"/><polygon fill="#0B1F35" points="30 30 30 25 35 25 35 24 30 24 30 19 29 19 29 24 24 24 24 25 29 25 29 30"/></g></svg>

<svg width="36" height="36" viewBox="0 0 36 36" xmlns="http://www.w3.org/2000/svg"><g fill="none" fill-rule="evenodd"><path d="M0 0h36v36H0z"/><path d="M4.848 21.009h6v3h-6v-3zm-2.866-9.003h32v3.972L2.001 16l-.019-3.994z" fill="#0B1F35" fill-rule="nonzero" opacity=".3"/><path d="M34 16.012V8.286C34 6.47 32.445 5 30.526 5H4.474C2.555 5 1 6.471 1 8.286v16.428C1 26.53 2.555 28 4.474 28H21.81v-1H4.474C3.095 27 2 25.964 2 24.714V8.286C2 7.036 3.095 6 4.474 6h26.052C31.905 6 33 7.036 33 8.286v7.726h1zm0-7.726C34 6.47 32.445 5 30.526 5H4.474C2.555 5 1 6.471 1 8.286v16.428C1 26.53 2.555 28 4.474 28H21.81v-1H4.474C3.095 27 2 25.964 2 24.714V8.286C2 7.036 3.095 6 4.474 6h26.052C31.905 6 33 7.036 33 8.286v7.726h1V8.286z" fill="#0B1F35" fill-rule="nonzero"/><path fill="#0B1F35" d="M30 30v-5h5v-1h-5v-5h-1v5h-5v1h5v5z"/></g></svg>
